X: 481
T:The Monaghan Twig
T:The Monaghan Switch
T:Alisdair MacAlisdair (Scotland)
C:Traditional
M:C
L:1/8
Q:350
R:reel
Z:Gordon Turnbull
N:Posted to the woodenflute mailing list January 2002
K:Amix
ed | cAAB cded | cAAG E2 ed | cAAB cded | BAGB dged |
cAAB cded | cAAG E2 ed | cAAB cded | BAGB d2 |]
ed | cdef gfed | cdef e3 d | cdef g3 e | dBGB dged |
(3Bcd ed (3Bcd ed | cAAB cdef | g3 e dged | BAGB d2 |]


